X:1
T:Un pastorcillo
T:Un pastorcillo
T:(Villancico)
L:1/8
M:3/4
K:C
V:1 treble nm="Piano" snm="Pno."
V:1
!mf! E2 A2 c2 |!>(! B2 BA A!>)! !fermata!z | z6 | z6 | E2 A2 E2 |!>(! F4 F!>)! !fermata!z | z6 | %7
w: Un pas- tor-|ci _ _ llo.|||Un Pas- tor-|ci- llo,||
 z6 |!f!!<(! AA!<)! C2 D2 |!>(! E2 !fermata!E2!>)! z2 | A2 B2 c2 | d4 c2 | c2- cB AB | %13
w: |so- loes- tá pe-|nan- do,|a- je- no|de pla|_ _ _ _ _|
!>(! c4 z2!>)! |!pp! A2 B2 c2 | B4 A2 | A2- A^G ^FG |!>(! A2 A2!>)! z2 |!<(! E2 A2 c2!<)! | %19
w: cer|y de con-|ten- to|y _ de co- on-|ten- to|en su pas-|
 c2 B2- B z |!<(! F2 _B2!<)! d2 | d2 ^c2 cc |!f! d2- dc BA |!>(! A2 ^G2!>)! z2 | A2 C2 D2 | %25
w: to- ra _|en su pas-|to- ra fi- jó|el _ _ pen- sa-|mien- to|el pe- cho|
 E2 E2 E2 | E2 FE DC | B,2 B,2 !fermata!z2 |!p! Ac BA ^GA |"^cresc."{B} A^G A2 A z | %30
w: del a- mor|muy la _ ti _|ma- do|el _ pe _ cho _|del a- mor _|
!<(! Ac BA ^GA!<)! |{B} A^G A2 A2 |"^cresc." A2 D2 c2 | c4 B z |!<(! B2 E2 d2!<)! |!f! dc cB BA | %36
w: el _ pe _ cho _|del a- mor _|muy las- ti-|ma- do|más _ _|llo- ra de pen- sar _|
 cB A2 ^G2{^FG} | A4 z2 | Ac BA ^GA |{B} A^G A2 z2 | Ac BA ^GA |{B} A^G A2 z2 |!<(! Ac BA ^GA!<)! | %43
w: quees- tá ol- vi~\-~da~~\-|do|y al- ca- bo de un|ra _ to|y al ca- bo de un|ra _ to|y al ca- bo de un|
{B} A^G A4 | A2 D2 c2 | c4 B2 | B2 E2 d2 | d!>!c c!>!B B!>!A |!ff! cB A2 ^G2{^FG} | A2 A z z2 | %50
w: ra _ to|se haen- cum-|bra- do|en _ un|ár- bol do a- brió sus|bra- zos be _|llos _|
 z6 | Ac BA ^GA |{B} A^G A2 z2 |!<(! Ac BA ^GA!<)! |{B} A^G A4 | A2 D2 c2 |"^cresc." c4 B2 | %57
w: |y _ muer- to se ha|que- da- do|y _ muer- to se ha|que- da- do|a- si- do|dee- llos|
!<(! B2 E2 d2!<)! |!f! d!>!c c!>!B B!>!A | cB A2 ^G2{^FG} | A2 A z z2 | z6 |!ff! E2 A2 c2 | %63
w: el _ _|pe- cho del a- mor _|muy _ las- ti~~~\-~~ma\_\_\_|do _||muy las- ti-|
!>(! B2 BA A!>)! z |] %64
w: ma _ _ do.|

